src/actions/symbolic/flag-symbolic.svg

<svg xmlns="http://www.w3.org/2000/svg" viewBox="0 0 16 16">
  <defs id="defs3051">
    <style type="text/css" id="current-color-scheme">
      .ColorScheme-Text {
        color:#2e3440;
      }
      </style>
  </defs>
 <path 
       style="fill:currentColor;fill-opacity:1;stroke:none"
	 class="ColorScheme-Text"
        d="M 3 1 C 2.7236333 1 2.499967 1.2236003 2.5 1.5 L 2.5 15 L 3.5 15 L 3.5 9.5449219 C 5.4998914 10.545857 7.2723592 10.018516 8.5 8.5 C 9.8780086 6.7958648 11.444216 6.2568841 13.5 5.5 C 13.5 5.5 11.499969 3.543857 8.5 3.5 C 6.5399758 3.4717071 4.6102814 3.1142443 3.5 1.5 C 3.5 1.2236003 3.2763338 1 3 1 z "
     />
</svg>

<svg viewBox="0 0 16 16" xmlns="http://www.w3.org/2000/svg">
 <defs>
  <style type="text/css">.ColorScheme-Text {
        color:#2e3440;
      }</style>
 </defs>
 <path class="ColorScheme-Text" d="m3 1c-0.27637 0-0.50003 0.2236-0.5 0.5v13.5h1v-5.4551c1.9999 1.0009 3.7724 0.47359 5-1.0449 1.378-1.7041 2.9442-2.2431 5-3 0 0-2-1.9561-5-2-1.96-0.028293-3.8897-0.38576-5-2 0-0.2764-0.22367-0.5-0.5-0.5z" fill="currentColor"/>
</svg>
